wasmegg/rockets-tracker/src/badges/badge-25.svg

<svg xmlns="http://www.w3.org/2000/svg" xml:space="preserve" style="fill-rule:evenodd;clip-rule:evenodd;stroke-linejoin:round;stroke-miterlimit:2" viewBox="0 0 64 64"><path d="M.291-.037a.5.5 0 0 0-.176.001l-.019.001q.033-.067.073-.13A.8.8 0 0 0 .244-.33q.025-.075.04-.153A.5.5 0 0 0 .288-.64C.281-.689.256-.74.209-.762A.13.13 0 0 0 .128-.77a.12.12 0 0 0-.094.093l-.008.052c-.002.013.003.026.017.03.011.003.028-.004.03-.017q.003-.033.012-.065l.002-.005.002-.004.004-.006.002-.004.011-.011.004-.002.009-.005.008-.004.004-.002.017-.004h.019l.005.001.008.002.006.002.012.007.003.002.013.013.002.003.009.014.003.007.001.001.001.003.009.033.002.008.001.006.001.016-.002.075-.001.014-.001.007-.002.01-.014.067-.025.085-.015.042-.007.019-.002.005-.001.003-.005.01-.041.077-.047.081-.042.085a.03.03 0 0 0-.002.019.02.02 0 0 0 .017.017C.09.017.128.011.166.008L.224.006l.028.002.015.001.008.001h.003q.01.002.019-.003a.03.03 0 0 0 .011-.014C.311-.019.304-.035.291-.037" style="fill:#fff;fill-rule:nonzero" transform="matrix(56 0 0 56 12.412 53.28)"/><path d="M.315-.703A.025.025 0 0 0 .34-.728a.025.025 0 0 0-.025-.024L.091-.753a.02.02 0 0 0-.013-.004.025.025 0 0 0-.025.024v.343q0 .011.009.019l.001.001a.03.03 0 0 0 .014.011q.01.002.019-.003h.001l.002-.001.008-.003.018-.006.017-.004.009-.002.005-.001.003-.001.039.001.008.002.004.002.008.004.003.002v.001l.007.006.009.009v.001l.01.015.004.008.002.004v.001q.007.017.011.035l.003.017.001.009.001.006v.002l.003.041-.001.02-.001.006v.003l-.001.006q-.004.02-.011.039l-.002.004-.001.002-.003.007-.01.02-.01.016-.004.005-.001.001-.004.004-.011.012-.006.006H.205L.202-.06l-.014.009-.008.003-.001.001-.003.001-.016.005-.009.002H.146l-.015.001H.13L.124-.04.118-.042H.117l-.01-.006H.106v-.001L.101-.053.095-.06.092-.064.089-.069.083-.08.082-.082.08-.088.077-.101.076-.107v-.002L.075-.122l.001-.007v-.004l.002-.009.002-.006.001-.002.005-.01C.094-.172.089-.187.078-.194.066-.201.051-.196.044-.185c-.046.072 0 .195.092.196a.2.2 0 0 0 .077-.02.2.2 0 0 0 .058-.053.27.27 0 0 0 .05-.16L.31-.306a.2.2 0 0 0-.031-.072.12.12 0 0 0-.07-.048.2.2 0 0 0-.084.004Q.113-.42.102-.416v-.288z" style="fill:#fff;fill-rule:nonzero" transform="matrix(56 0 0 56 31.116 53.28)"/></svg>

<?xml version="1.0" encoding="UTF-8" standalone="no"?>
<!DOCTYPE svg PUBLIC "-//W3C//DTD SVG 1.1//EN" "http://www.w3.org/Graphics/SVG/1.1/DTD/svg11.dtd">
<svg width="100%" height="100%" viewBox="0 0 64 64" version="1.1" xmlns="http://www.w3.org/2000/svg" xmlns:xlink="http://www.w3.org/1999/xlink" xml:space="preserve" xmlns:serif="http://www.serif.com/" style="fill-rule:evenodd;clip-rule:evenodd;stroke-linejoin:round;stroke-miterlimit:2;">
    <g transform="matrix(1,0,0,1,-18.3943,22.2681)">
        <g transform="matrix(56,0,0,56,30.8061,31.0123)">
            <path d="M0.291,-0.037C0.251,-0.043 0.211,-0.045 0.171,-0.042C0.153,-0.04 0.134,-0.038 0.115,-0.036C0.109,-0.036 0.103,-0.035 0.096,-0.035C0.118,-0.08 0.142,-0.123 0.169,-0.165C0.201,-0.216 0.225,-0.273 0.244,-0.33C0.26,-0.38 0.275,-0.431 0.284,-0.483C0.293,-0.535 0.296,-0.587 0.288,-0.64C0.281,-0.689 0.256,-0.74 0.209,-0.762C0.183,-0.774 0.155,-0.776 0.128,-0.77C0.102,-0.764 0.075,-0.749 0.059,-0.728C0.047,-0.713 0.039,-0.696 0.034,-0.677C0.03,-0.66 0.028,-0.642 0.026,-0.625C0.024,-0.612 0.029,-0.599 0.043,-0.595C0.054,-0.592 0.071,-0.599 0.073,-0.612C0.076,-0.634 0.078,-0.656 0.085,-0.677C0.086,-0.678 0.087,-0.681 0.087,-0.682C0.088,-0.683 0.089,-0.685 0.089,-0.686C0.09,-0.688 0.092,-0.69 0.093,-0.692C0.094,-0.694 0.094,-0.695 0.095,-0.696L0.106,-0.707C0.107,-0.707 0.108,-0.708 0.11,-0.709C0.113,-0.711 0.116,-0.713 0.119,-0.714C0.121,-0.716 0.124,-0.717 0.127,-0.718C0.128,-0.719 0.13,-0.719 0.131,-0.72C0.137,-0.722 0.142,-0.723 0.148,-0.724L0.152,-0.724C0.155,-0.725 0.158,-0.725 0.16,-0.724L0.167,-0.724C0.169,-0.724 0.171,-0.723 0.172,-0.723C0.175,-0.723 0.178,-0.722 0.18,-0.721C0.181,-0.721 0.185,-0.719 0.186,-0.719C0.19,-0.717 0.194,-0.714 0.198,-0.712C0.199,-0.711 0.2,-0.711 0.201,-0.71L0.214,-0.697C0.215,-0.696 0.216,-0.695 0.216,-0.694C0.22,-0.689 0.222,-0.685 0.225,-0.68C0.226,-0.678 0.227,-0.675 0.228,-0.673C0.229,-0.673 0.229,-0.672 0.229,-0.672C0.229,-0.671 0.23,-0.67 0.23,-0.669C0.234,-0.658 0.237,-0.647 0.239,-0.636C0.24,-0.633 0.24,-0.631 0.241,-0.628C0.241,-0.627 0.242,-0.623 0.242,-0.622C0.242,-0.616 0.243,-0.611 0.243,-0.606C0.244,-0.593 0.244,-0.581 0.244,-0.568C0.244,-0.556 0.243,-0.544 0.241,-0.531C0.241,-0.526 0.24,-0.522 0.24,-0.517C0.24,-0.515 0.239,-0.511 0.239,-0.51C0.238,-0.507 0.238,-0.504 0.237,-0.5C0.233,-0.478 0.228,-0.456 0.223,-0.433C0.215,-0.405 0.207,-0.376 0.198,-0.348C0.194,-0.334 0.189,-0.32 0.183,-0.306C0.181,-0.3 0.178,-0.293 0.176,-0.287C0.175,-0.285 0.174,-0.283 0.174,-0.282C0.173,-0.281 0.173,-0.28 0.173,-0.279C0.171,-0.276 0.17,-0.273 0.168,-0.269C0.157,-0.243 0.143,-0.216 0.127,-0.192C0.111,-0.165 0.095,-0.139 0.08,-0.111C0.065,-0.083 0.051,-0.055 0.038,-0.026C0.035,-0.02 0.034,-0.014 0.036,-0.007C0.038,0.001 0.044,0.008 0.053,0.01C0.09,0.017 0.128,0.011 0.166,0.008C0.185,0.006 0.205,0.006 0.224,0.006C0.233,0.007 0.243,0.007 0.252,0.008C0.257,0.008 0.262,0.008 0.267,0.009C0.27,0.009 0.272,0.009 0.275,0.01L0.278,0.01C0.285,0.011 0.291,0.011 0.297,0.007C0.302,0.004 0.306,-0.001 0.308,-0.007C0.311,-0.019 0.304,-0.035 0.291,-0.037Z" style="fill:white;fill-rule:nonzero;"/>
        </g>
        <g transform="matrix(56,0,0,56,49.5101,31.0123)">
            <path d="M0.315,-0.703C0.329,-0.703 0.34,-0.714 0.34,-0.728C0.34,-0.741 0.329,-0.752 0.315,-0.752C0.24,-0.752 0.165,-0.753 0.091,-0.753C0.087,-0.756 0.082,-0.757 0.078,-0.757C0.064,-0.757 0.053,-0.746 0.053,-0.733L0.053,-0.39C0.053,-0.383 0.057,-0.376 0.062,-0.371C0.062,-0.371 0.063,-0.371 0.063,-0.37C0.066,-0.365 0.071,-0.361 0.077,-0.359C0.084,-0.357 0.09,-0.359 0.096,-0.362L0.097,-0.362C0.098,-0.362 0.098,-0.362 0.099,-0.363C0.101,-0.364 0.104,-0.365 0.107,-0.366L0.125,-0.372C0.13,-0.373 0.136,-0.375 0.142,-0.376C0.145,-0.377 0.148,-0.378 0.151,-0.378C0.153,-0.378 0.154,-0.379 0.156,-0.379C0.156,-0.379 0.158,-0.379 0.159,-0.38C0.17,-0.381 0.18,-0.381 0.191,-0.38C0.191,-0.38 0.196,-0.379 0.198,-0.379C0.2,-0.378 0.203,-0.377 0.206,-0.377C0.207,-0.376 0.208,-0.376 0.21,-0.375C0.212,-0.374 0.215,-0.372 0.218,-0.371C0.219,-0.37 0.22,-0.369 0.221,-0.369L0.221,-0.368C0.224,-0.366 0.226,-0.364 0.228,-0.362L0.237,-0.353L0.237,-0.352C0.241,-0.347 0.244,-0.342 0.247,-0.337C0.248,-0.335 0.249,-0.332 0.251,-0.329C0.251,-0.328 0.252,-0.327 0.253,-0.325L0.253,-0.324C0.258,-0.313 0.261,-0.301 0.264,-0.289C0.265,-0.283 0.266,-0.278 0.267,-0.272C0.267,-0.269 0.268,-0.266 0.268,-0.263C0.269,-0.261 0.269,-0.259 0.269,-0.257L0.269,-0.255C0.271,-0.241 0.272,-0.228 0.272,-0.214C0.272,-0.207 0.271,-0.201 0.271,-0.194C0.271,-0.192 0.27,-0.19 0.27,-0.188L0.27,-0.185C0.269,-0.183 0.269,-0.181 0.269,-0.179C0.266,-0.166 0.263,-0.153 0.258,-0.14C0.257,-0.139 0.257,-0.137 0.256,-0.136C0.256,-0.135 0.256,-0.135 0.255,-0.134C0.254,-0.131 0.253,-0.129 0.252,-0.127C0.249,-0.12 0.245,-0.113 0.242,-0.107C0.239,-0.102 0.235,-0.097 0.232,-0.091C0.231,-0.09 0.23,-0.088 0.228,-0.086L0.227,-0.085C0.226,-0.083 0.225,-0.082 0.223,-0.081C0.22,-0.076 0.216,-0.072 0.212,-0.069L0.206,-0.063L0.205,-0.063C0.204,-0.062 0.202,-0.061 0.202,-0.06C0.197,-0.057 0.193,-0.054 0.188,-0.051C0.185,-0.05 0.183,-0.049 0.18,-0.048L0.179,-0.047C0.178,-0.047 0.177,-0.046 0.176,-0.046C0.171,-0.044 0.165,-0.042 0.16,-0.041C0.157,-0.04 0.154,-0.04 0.151,-0.039L0.146,-0.039C0.141,-0.038 0.136,-0.038 0.131,-0.038L0.13,-0.038C0.128,-0.039 0.126,-0.039 0.124,-0.04C0.122,-0.04 0.12,-0.041 0.118,-0.042L0.117,-0.042C0.114,-0.044 0.11,-0.046 0.107,-0.048L0.106,-0.048L0.106,-0.049C0.104,-0.05 0.103,-0.052 0.101,-0.053C0.099,-0.055 0.097,-0.057 0.095,-0.06C0.095,-0.061 0.093,-0.063 0.092,-0.064C0.091,-0.065 0.09,-0.067 0.089,-0.069C0.087,-0.073 0.085,-0.076 0.083,-0.08C0.083,-0.081 0.083,-0.081 0.082,-0.082C0.082,-0.084 0.081,-0.086 0.08,-0.088C0.079,-0.093 0.078,-0.097 0.077,-0.101C0.077,-0.103 0.076,-0.105 0.076,-0.107L0.076,-0.109C0.075,-0.113 0.075,-0.118 0.075,-0.122C0.075,-0.124 0.075,-0.127 0.076,-0.129L0.076,-0.133C0.077,-0.136 0.077,-0.139 0.078,-0.142C0.079,-0.144 0.079,-0.146 0.08,-0.148C0.08,-0.149 0.081,-0.15 0.081,-0.15C0.082,-0.154 0.084,-0.157 0.086,-0.16C0.094,-0.172 0.089,-0.187 0.078,-0.194C0.066,-0.201 0.051,-0.196 0.044,-0.185C-0.002,-0.113 0.044,0.01 0.136,0.011C0.162,0.011 0.189,0.003 0.213,-0.009C0.236,-0.022 0.255,-0.041 0.271,-0.062C0.305,-0.108 0.321,-0.165 0.321,-0.222C0.32,-0.25 0.316,-0.279 0.31,-0.306C0.304,-0.332 0.294,-0.357 0.279,-0.378C0.261,-0.401 0.238,-0.42 0.209,-0.426C0.181,-0.432 0.152,-0.429 0.125,-0.422C0.117,-0.421 0.11,-0.418 0.102,-0.416L0.102,-0.704C0.173,-0.704 0.244,-0.703 0.315,-0.703Z" style="fill:white;fill-rule:nonzero;"/>
        </g>
    </g>
</svg>
